X:1
T:Title
%%score ( 1 2 ) { 3 | 4 }
L:1/8
Q:1/4=103
M:4/4
K:Eb
V:1 treble nm="Grand Piano, Soprano"
V:2 treble 
V:3 bass nm="Choir Pad, Fargo, 10.8.10.8, Graham"
V:4 bass 
V:1
 E>[DF] [EG]2 [EG]2 [EG]2 | [Ee]>[Ed] [Ec]2 [Ac]2 [GB]2 | [FB]>[FA] [EG]2 [EG]2 [FB]2 | %3
w: By~Thomas~Graham,~1884 * * * *|||
 AG [EG]4 [DF]2 | [FB]>[FA] [EG]2 [EG]2 [EG]2 | [Ee]>[Ed] [Ec]2 [Ec]2 [Ec]2 | %6
w: |||
 E[EF] [EG]2 [FB][FA] [EG]2 | [DF]2 [DF]4 E2- | E6 z2 |] %9
w: |||
V:2
 x8 | x8 | x8 | F2 z2 z4 | x8 | x8 | x8 | x8 | x8 |] %9
V:3
 B,>A, B,2 B,2 B,2 | B,>B, A,2 E2 E2 | B,>B, B,2 B,2 C2 | C2 B,4 B,2 | B,>B, B,2 B,2 B,2 | %5
 B,>B, A,2 A,2 A,2 | CC B,2 CC[K:bass] B,2 | A,2 A,4 G,2- | G,6 z2 |] %9
V:4
 G,>F, E,2 E,2 E,2 | G,>G, z2 A,2 E,2 | D,>D, E,2 E,2 A,,2 | A,,2 B,,4 B,,2 | D,>D, E,2 E,2 E,2 | %5
 G,>G, z2 z4 | A,,A,, B,,2 A,,A,, B,,2 | B,,2 B,,4 E,2- | E,6 z2 |] %9

